**kern	**silbe	**harmony	**chordsym	**phrase	**timestamp	**leadinstrument
*ICvox	*	*M12/8	*M12/8	*	*	*
*	*	*F:	*F:	*	*	*
r;	.	1r;	r	.	0	r
*C:	*	*	*	*	*	*
*M4/4	*	*	*	*	*	*
*clefG2	*	*	*	*	*	*
=1	=1	=1	=1	=1	=1	=1
*	*	*>A_intro	*>A_intro	*>A_intro	*>A_intro	*>A_intro
r;	.	2.CM	C:maj (C E G)	newline	0.267	r
=1	=1	=1	=1	=1	=1	=1
1r	.	2.Am	A:min (A C E)	.	.	r
=2	=2	=2	=2	=2	=2	=2
.	.	2.Dmm	D:min7 (D F A C)	.	.	r
=2	=2	=2	=2	=2	=2	=2
1r	.	.	.	.	.	.
.	.	2.GMm	G:7 (G B D F)	.	.	r
=3	=3	=3	=3	=3	=3	=3
1r	.	.	.	.	.	.
=3	=3	=3	=3	=3	=3	=3
.	.	2.CM	C:maj (C E G)	.	.	r
=4	=4	=4	=4	=4	=4	=4
1r	.	2.AMm	A:7 (A C# E G)	.	.	r
=4	=4	=4	=4	=4	=4	=4
.	.	2.Dmm	D:min7 (D F A C)	.	.	r
=5	=5	=5	=5	=5	=5	=5
4r	.	.	.	.	.	.
8.g	un-	.	.	.	.	.
16a	-for-	.	.	.	.	.
16a	-get-	2.GMm	G:9 (G B F A)	.	.	r
16b	-a-	.	.	.	.	.
[16b	-ble	.	.	.	.	.
16b_	_	.	.	.	.	.
4b]	_	.	.	.	.	.
=6	=6	=6	=6	=6	=6	=6
4r	.	.	.	.	.	.
=5	=5	=5	=5	=5	=5	=5
*	*	*>B_verse	*>B_verse	*>B_verse	*>B_verse	*>B_verse
8r	.	2.CMM	C:maj7 (C E G B)	newline	15.743	voice
2r	.	.	.	.	.	.
8b	that's	.	.	.	.	.
=7	=7	=7	=7	=7	=7	=7
16b	what	4.CMM	C:maj7 (C E G B)	.	.	voice
16a	you	.	.	.	.	.
[2b	are	.	.	.	.	.
.	.	4.BA	B:aug (B D# F##)	.	.	voice
8b]	_	.	.	.	.	.
=6	=6	=6	=6	=6	=6	=6
4r	.	1.CM	C:maj (C E G)	.	.	voice
=8	=8	=8	=8	=8	=8	=8
1r	.	.	.	.	.	.
=9	=9	=9	=9	=9	=9	=9
4r	.	.	.	.	.	.
=7	=7	=7	=7	=7	=7	=7
8.cc	un-	1.E-d	E-:dim (E- G- B--)	.	.	voice
16dd	-for-	.	.	.	.	.
16dd	-get-	.	.	.	.	.
16ee	-a-	.	.	.	.	.
[16ee	-ble	.	.	.	.	.
16ee_	_	.	.	.	.	.
4ee]	_	.	.	.	.	.
=10	=10	=10	=10	=10	=10	=10
2r	.	.	.	.	.	.
6gg	though	.	.	.	.	.
6ee	near	.	.	.	.	.
=8	=8	=8	=8	=8	=8	=8
.	.	1.E-d	E-:dim (E- G- B--)	.	.	voice
6dd	or	.	.	.	.	.
=11	=11	=11	=11	=11	=11	=11
1ee	far	.	.	.	.	.
=12	=12	=12	=12	=12	=12	=12
1r	.	.	.	.	.	.
=9	=9	=9	=9	=9	=9	=9
.	.	1.FMM	F:maj7 (F A C E)	newline	31.161	voice
=13	=13	=13	=13	=13	=13	=13
8r	.	.	.	.	.	.
8ff	like	.	.	.	.	.
8r	.	.	.	.	.	.
8gg	a	.	.	.	.	.
4gg	song	.	.	.	.	.
=10	=10	=10	=10	=10	=10	=10
12r	.	1.FMM	F:maj7 (F A C E)	.	.	voice
12ee	of	.	.	.	.	.
12ff	love	.	.	.	.	.
=14	=14	=14	=14	=14	=14	=14
4r	.	.	.	.	.	.
8r	.	.	.	.	.	.
8gg	that	.	.	.	.	.
8.aa	clings	.	.	.	.	.
16gg	to	.	.	.	.	.
4ff	_	.	.	.	.	.
=15	=15	=15	=15	=15	=15	=15
4r	.	.	.	.	.	.
=11	=11	=11	=11	=11	=11	=11
4ee	oh	2.DMm	D:7 (D F# A C)	.	.	voice
8ee	how	.	.	.	.	.
8cc	the	.	.	.	.	.
12ee	thought	.	.	.	.	.
12cc	of	.	.	.	.	.
[12ee	you	.	.	.	.	.
=16	=16	=16	=16	=16	=16	=16
8ee]	_	2.Dm	D:sus4(b7) (E D G A C)	.	.	voice
8ee	does	.	.	.	.	.
4r	.	.	.	.	.	.
8ee	things	.	.	.	.	.
16dd	to	.	.	.	.	.
[16cc	me	.	.	.	.	.
=12	=12	=12	=12	=12	=12	=12
4cc]	_	2.Ddm	D:hdim7 (F D A- C)	.	.	voice
=17	=17	=17	=17	=17	=17	=17
4r	.	.	.	.	.	.
8r	.	.	.	.	.	.
16a	nev-	.	.	.	.	.
16a	-er	.	.	.	.	.
4.r	.	2.DMm	D:7 (F# D A C)	.	.	voice
8dd	be-	.	.	.	.	.
=18	=18	=18	=18	=18	=18	=18
4a	-fore	.	.	.	.	.
=13	=13	=13	=13	=13	=13	=13
4r	.	1.B-M	B-:maj (B- D F)	newline	46.463	voice
4.r	.	.	.	.	.	.
8a	has	.	.	.	.	.
=19	=19	=19	=19	=19	=19	=19
12b	some-	.	.	.	.	.
12b	-one	.	.	.	.	.
12r	.	.	.	.	.	.
4r	.	.	.	.	.	.
4r	.	.	.	.	.	.
=14	=14	=14	=14	=14	=14	=14
4ff	been	1.B-m	B-:min (B- D- F)	.	.	voice
=20	=20	=20	=20	=20	=20	=20
4b	more	.	.	.	.	.
4r	.	.	.	.	.	.
2r	.	.	.	.	.	.
=21	=21	=21	=21	=21	=21	=21
4r	.	.	.	.	.	.
=15	=15	=15	=15	=15	=15	=15
8.g	un-	2.FM	F:maj (F A C)	.	.	voice
16a	-for-	.	.	.	.	.
16a	-get-	.	.	.	.	.
16b	-a-	.	.	.	.	.
[16b	-ble	.	.	.	.	.
16b_	_	.	.	.	.	.
4b]	_	.	.	.	.	.
=22	=22	=22	=22	=22	=22	=22
4r	.	2.Cm	C:min6 (C E- G A)	.	.	voice
8r	.	.	.	.	.	.
2r	.	.	.	.	.	.
=16	=16	=16	=16	=16	=16	=16
.	.	1.DMm	D:7 (D F# A C)	.	.	voice
8b	in	.	.	.	.	.
=23	=23	=23	=23	=23	=23	=23
16b	ev-	.	.	.	.	.
16a	-ry	.	.	.	.	.
[2b	way	.	.	.	.	.
8b]	_	.	.	.	.	.
4r	.	.	.	.	.	.
=24	=24	=24	=24	=24	=24	=24
1r	.	.	.	.	.	.
=17	=17	=17	=17	=17	=17	=17
.	.	1.GMm	G:9 (G B F A)	newline	61.698	voice
=25	=25	=25	=25	=25	=25	=25
4r	.	.	.	.	.	.
8.cc	and	.	.	.	.	.
16dd	for-	.	.	.	.	.
16dd	-ev-	.	.	.	.	.
16ee	-er	.	.	.	.	.
[16ee	more	.	.	.	.	.
16ee_	_	.	.	.	.	.
=18	=18	=18	=18	=18	=18	=18
4ee]	_	2.GMm	G:9 (G B F A)	.	.	voice
=26	=26	=26	=26	=26	=26	=26
2r	.	.	.	.	.	.
8gg	I	4.GMm	G:9 (G B F A)	.	.	voice
8ee	in-	.	.	.	.	.
8.ee	-tend	.	.	.	.	.
.	.	4.F#Mm	F#:7 (F# A# C# E)	.	.	voice
16dd	to	.	.	.	.	.
=27	=27	=27	=27	=27	=27	=27
1ee	stay	.	.	.	.	.
=19	=19	=19	=19	=19	=19	=19
.	.	1.GMm	G:7 (G B D F)	.	.	voice
=28	=28	=28	=28	=28	=28	=28
1r	.	.	.	.	.	.
=20	=20	=20	=20	=20	=20	=20
.	.	1.GMm	G:7 (G B D F)	.	.	voice
=29	=29	=29	=29	=29	=29	=29
8r	.	.	.	.	.	.
8ff	that's	.	.	.	.	.
8r	.	.	.	.	.	.
8gg	why	.	.	.	.	.
8gg	dar-	.	.	.	.	.
8ff	-ling	.	.	.	.	.
4r	.	.	.	.	.	.
=30	=30	=30	=30	=30	=30	=30
4r	.	.	.	.	.	.
=21	=21	=21	=21	=21	=21	=21
*	*	*>B_verse	*>B_verse	*>B_verse	*>B_verse	*>B_verse
16r	.	2.CMM	C:maj7 (C E G B)	newline	77.113	voice
16gg	it's	.	.	.	.	.
16r	.	.	.	.	.	.
16aa	in-	.	.	.	.	.
12aa	-cred-	.	.	.	.	.
12gg	-i-	.	.	.	.	.
[12ff	-ble	.	.	.	.	.
4ff]	_	.	.	.	.	.
=31	=31	=31	=31	=31	=31	=31
4r	.	4.CMM	C:maj7 (C E G B)	.	.	voice
4ee	that	.	.	.	.	.
.	.	4.BA	B:aug (B D# F##)	.	.	voice
6ee	some-	.	.	.	.	.
6cc	-one	.	.	.	.	.
=22	=22	=22	=22	=22	=22	=22
.	.	1.CM	C:maj (C E G)	.	.	voice
6ee	so	.	.	.	.	.
=32	=32	=32	=32	=32	=32	=32
8ee	un-	.	.	.	.	.
8ee	-for-	.	.	.	.	.
8ee	-get-	.	.	.	.	.
16dd	-a-	.	.	.	.	.
[16cc	-ble	.	.	.	.	.
2cc]	_	.	.	.	.	.
=33	=33	=33	=33	=33	=33	=33
4r	.	.	.	.	.	.
=23	=23	=23	=23	=23	=23	=23
8g	thinks	1.E-d	E-:dim (E- G- B--)	.	.	voice
8a	that	.	.	.	.	.
8a	i	.	.	.	.	.
8g	am	.	.	.	.	.
4r	.	.	.	.	.	.
=34	=34	=34	=34	=34	=34	=34
8r	.	.	.	.	.	.
8g	un-	.	.	.	.	.
4r	.	.	.	.	.	.
8r	.	.	.	.	.	.
8dd	-for-	.	.	.	.	.
=24	=24	=24	=24	=24	=24	=24
12dd	-get-	1.E-d	E-:dim (E- G- B--)	.	.	voice
12a	-a-	.	.	.	.	.
12dd	-ble-	.	.	.	.	.
=35	=35	=35	=35	=35	=35	=35
1cc	-too	.	.	.	.	.
=36	=36	=36	=36	=36	=36	=36
2r	.	.	.	.	.	.
=25	=25	=25	=25	=25	=25	=25
.	.	1.FMM	F:maj7 (F A C E)	newline	92.555	voice
[4bb-	please	.	.	.	.	.
12bb-]	_	.	.	.	.	.
12aa	won't	.	.	.	.	.
12ff	you	.	.	.	.	.
=37	=37	=37	=37	=37	=37	=37
8aa	think	.	.	.	.	.
8ff	that	.	.	.	.	.
8ff	I	.	.	.	.	.
4.dd	am	.	.	.	.	.
=26	=26	=26	=26	=26	=26	=26
4r	.	1.FMM	F:maj7 (F A C E)	.	.	voice
=38	=38	=38	=38	=38	=38	=38
8bb-	un-	.	.	.	.	.
8aa	-for-	.	.	.	.	.
16ff	-get-	.	.	.	.	.
16gg	-a-	.	.	.	.	.
16aa	-b-	.	.	.	.	.
16ff	-l-	.	.	.	.	.
2gg;	-e	.	.	.	.	.
=39	=39	=39	=39	=39	=39	=39
[1ff	too	.	.	.	.	.
=27	=27	=27	=27	=27	=27	=27
.	.	2.DMm	D:7 (D F# A C)	.	.	voice
=40	=40	=40	=40	=40	=40	=40
1ff];	_	2.Dm	D:sus4(b7) (E D G A C)	.	.	voice
=28	=28	=28	=28	=28	=28	=28
.	.	2.Ddm	D:hdim7 (F D A- C)	.	.	voice
r;	.	.	.	.	.	.
r;	.	2.DMm	D:7 (F# D A C)	.	.	voice
*-	*-	*	*
=29	=29	=29	=29	=29
1.B-M	B-:maj (B- D F)	newline	107.88	voice
=30	=30	=30	=30	=30
1.B-m	B-:min (B- D- F)	.	.	voice
=31	=31	=31	=31	=31
2.FM	F:maj (F A C)	.	.	voice
2.Cm	C:min6 (C E- G A)	.	.	voice
=32	=32	=32	=32	=32
1.DMm	D:7 (D F# A C)	.	.	voice
=33	=33	=33	=33	=33
1.GMm	G:9 (G B F A)	newline	123.265	voice
=34	=34	=34	=34	=34
2.CM	C:sus4(b7,9) (C F G B- D)	.	.	voice
2.CMm	C:7 (C E G B-)	.	.	voice
=35	=35	=35	=35	=35
1.FMM	F:maj7 (F A C E)	.	.	voice
=36	=36	=36	=36	=36
1.DMm	D:9 (D F# C E)	.	.	voice
=37	=37	=37	=37	=37
1.GMm	G:7 (G B D F)	newline	139.529	voice
=38	=38	=38	=38	=38
1.CMm	C:7 (C E G B-)	.	.	voice
=39	=39	=39	=39	=39
1.FM	F:maj (F A C)	.	.	voice
=40	=40	=40	=40	=40
1.FM	F:maj (F A C)	.	.	voice
1r;	r	.	160.288	r
1r;	r	.	164.049	r
*-	*-	*-	*-	*-
!!!BillboardChartDate: 1959/11/02
!!!BillboardPeak: 17
!!!BillboardWeeksOnChart: 13
!!!COC: Dinah Washington
!!!ENC: Nathaniel Condit-Schultz
!!!EST: Awating manual error checking and editing.
!!!OTL: Unforgettable
!!!RDF**chordsym: original McGill chord annotation + (implied pitch class set, with bass pitch in first position)
!!!RDF**harmony: **recip + pitch class of root + harmonic quality
!!!RDF**leadinstrument: original McGill primary instrumentation annotation
!!!RDF**phrase: newline = linebreak in original McGill transcription
!!!RDF**timestamp: McGill audio timestamp in seconds
!!!RDT: 2017/01/12/
!!!SampleActualRank: 29
!!!SampleID#: 0192
!!!SampleTargetRank: 30
